X: 05091
T: Lady Susan Stewart's Reel
R: reel
B: RSCDS 5-9(a)
B: Caledonian Country Dances, circa 1754
Z: 1997 by John Chambers <jc:trillian.mit.edu>
M: C|
L: 1/8
K: ADor
|: "Am"Aeeg fdec | Aeeg "G"BGdB | "Am"Aeeg fdeg | "G"f>edg BGdB :|
|: "Am"Ag f/g/a fdec | Ag f/g/a "G"BGdB | "Am"Ag f/g/a fdeg | "G"f>edg BGdB :|
%%center Book05/05091-Lady_Susan_Stewarts_Reel-1-JC.abc

%%sep 1 1 500
%%sep 1 1 500

